X: 21423
T: JACK DOBSON -- Reel
C: By H. Shaw
R: reel
B: K\"ohler's Violin Repository, v.2, 1885 p.142 #3
F: http://www.archive.org/details/klersviolinrepos02rugg
Z: 2012 John Chambers <jc:trillian.mit.edu>
M: C|
L: 1/8
K: E
ue !segno!|\
BE (c/B/A) (GB)EB | A=GFE DFAd | BE (c/B/A) (GB)EB |\
[1 (e/f/g) (f/g/a) geec !segno!:|[2 (e/f/g) (f/g/a) gee |]
ua | gebe gbeg | fB (g/f/e) (de)fa | gebe gbeg | (f{gf}e) (Ba) gee |]
 a | gebe gbeg | fB (g/f/e) (de)fa | gece f=dBd | cAFA | GEE "^D.C."|]

%%sep 2 1 500

